X:111
T:11. DROPS OF BRANDY (32 bar polka)
T:Spokes's Tune/Vic's No. 2
R:Polka
O:Ireland
M:2/4
L:1/8
K:D
d/2e/2|\
fd ec|dc/2B/2 AG|FA dF|EA Ad/2e/2|\
fd ec|dc/2B/2 AG|FA Bc|[1 d D D:| [2 d D D2 |
FA/2A/2 AA|GB/2B/2 BB|FA/2A/2 AF|EA A>G|\
FA df|ge dc|dB AG|FE D2 :|
